src/components/icons/MiscellaneousIcon.svg

<svg width="36" height="36" viewBox="0 0 36 36" fill="none" xmlns="http://www.w3.org/2000/svg">
<path d="M20.2596 12.0066C17.1425 11.3532 14.7062 8.91678 14.0528 5.79962C13.9725 5.41697 13.635 5.14285 13.244 5.14285C12.8529 5.14285 12.5154 5.41697 12.4352 5.79967C11.7818 8.91678 9.34538 11.3531 6.22828 12.0065C5.84558 12.0867 5.57141 12.4242 5.57141 12.8153C5.57141 13.2063 5.84553 13.5438 6.22828 13.624C9.34533 14.2775 11.7816 16.7138 12.435 19.8309C12.5152 20.2136 12.8527 20.4878 13.2438 20.4878C13.6348 20.4878 13.9724 20.2137 14.0526 19.8309C14.7061 16.7138 17.1425 14.2775 20.2596 13.6242C20.6423 13.544 20.9165 13.2065 20.9165 12.8154C20.9164 12.4244 20.6423 12.0868 20.2596 12.0066Z" fill="#3F51B5"/>
<path d="M14.0528 5.79962C14.7062 8.91678 17.1425 11.3532 20.2596 12.0066C20.6423 12.0868 20.9164 12.4244 20.9165 12.8154C20.9165 13.2065 20.6423 13.544 20.2596 13.6242C17.5817 10.301 10.4991 11.0009 6.79216 11.8669C6.60691 11.9199 6.41886 11.9665 6.22827 12.0065C6.40581 11.9598 6.59417 11.9131 6.79216 11.8669C9.63665 11.0526 11.8217 8.72618 12.4352 5.79967C12.5154 5.41697 12.8529 5.14285 13.244 5.14285C13.635 5.14285 13.9725 5.41697 14.0528 5.79962Z" fill="black" fill-opacity="0.1"/>
<path d="M18.8935 25.6582C17.4249 25.3504 16.277 24.2025 15.9691 22.7338C15.8889 22.3511 15.5514 22.0769 15.1603 22.0769C14.7693 22.0769 14.4317 22.351 14.3515 22.7337C14.0436 24.2024 12.8956 25.3503 11.427 25.6582C11.0443 25.7384 10.7701 26.0759 10.7701 26.467C10.7701 26.858 11.0443 27.1956 11.427 27.2758C12.8956 27.5836 14.0435 28.7316 14.3514 30.2003C14.4316 30.583 14.7691 30.8571 15.1602 30.8571C15.5512 30.8571 15.8888 30.5831 15.969 30.2003C16.2769 28.7316 17.4249 27.5837 18.8935 27.2758C19.2762 27.1956 19.5504 26.8581 19.5504 26.467C19.5504 26.076 19.2763 25.7385 18.8935 25.6582Z" fill="#1A237E"/>
<path d="M11.427 27.2758C11.6026 27.3126 11.7736 27.3614 11.9392 27.4214C15.8059 28.4185 18.1735 26.6917 18.8935 25.6582C19.2763 25.7385 19.5504 26.076 19.5504 26.467C19.5504 26.8581 19.2762 27.1956 18.8935 27.2758C17.4249 27.5837 16.2769 28.7316 15.969 30.2003C15.8888 30.5831 15.5512 30.8571 15.1602 30.8571C14.7691 30.8571 14.4316 30.583 14.3514 30.2003C14.0803 28.9072 13.1581 27.8628 11.9392 27.4214C11.7713 27.3781 11.6005 27.3296 11.427 27.2758Z" fill="black" fill-opacity="0.1"/>
<path d="M30.0585 18.0068C28.0733 17.5906 26.5218 16.039 26.1057 14.054C26.0255 13.6713 25.688 13.3971 25.2969 13.3971C24.9059 13.3971 24.5683 13.6712 24.4881 14.0539C24.072 16.039 22.5204 17.5906 20.5353 18.0067C20.1526 18.0869 19.8784 18.4244 19.8784 18.8155C19.8784 19.2065 20.1525 19.544 20.5353 19.6243C22.5204 20.0404 24.0719 21.592 24.488 23.5771C24.5682 23.9598 24.9057 24.234 25.2968 24.234C25.6878 24.234 26.0254 23.9599 26.1056 23.5771C26.5218 21.592 28.0733 20.0404 30.0584 19.6244C30.4411 19.5441 30.7153 19.2066 30.7153 18.8156C30.7153 18.4245 30.4412 18.087 30.0585 18.0068Z" fill="#283593"/>
<path d="M26.1057 14.054C26.5218 16.039 28.0733 17.5906 30.0584 18.0068C30.4411 18.087 30.7153 18.4245 30.7153 18.8156C30.7153 19.2066 30.4411 19.5441 30.0584 19.6244C28.0733 20.0404 26.5218 21.592 26.1056 23.5771C26.0254 23.9599 25.6878 24.234 25.2968 24.234C24.9057 24.234 24.5682 23.9598 24.488 23.5771C27.9641 19.4673 25.9364 15.5159 24.4881 14.0539C24.5683 13.6712 24.9058 13.3971 25.2969 13.3971C25.688 13.3971 26.0255 13.6713 26.1057 14.054Z" fill="black" fill-opacity="0.1"/>
</svg>

<svg width="36" height="36" fill="none" xmlns="http://www.w3.org/2000/svg"><path d="M20.26 12.007A8.025 8.025 0 0114.053 5.8a.827.827 0 00-1.618 0 8.025 8.025 0 01-6.207 6.207.826.826 0 000 1.617 8.025 8.025 0 016.207 6.207.826.826 0 001.618 0 8.025 8.025 0 016.207-6.207.826.826 0 000-1.617z" fill="#3F51B5"/><path d="M14.053 5.8a8.025 8.025 0 006.207 6.207.827.827 0 010 1.617c-2.678-3.323-9.76-2.623-13.468-1.757-.185.053-.373.1-.564.14.178-.047.366-.094.564-.14A8.025 8.025 0 0012.435 5.8a.826.826 0 011.618 0z" fill="#000" fill-opacity=".1"/><path d="M18.893 25.658a3.78 3.78 0 01-2.924-2.924.826.826 0 00-1.617 0 3.781 3.781 0 01-2.925 2.924.826.826 0 000 1.618 3.781 3.781 0 012.924 2.924.826.826 0 001.618 0 3.781 3.781 0 012.925-2.924.826.826 0 000-1.618z" fill="#1A237E"/><path d="M11.427 27.276c.176.037.347.085.512.145 3.867.998 6.235-.73 6.954-1.763a.826.826 0 010 1.618A3.781 3.781 0 0015.97 30.2a.826.826 0 01-1.618 0 3.782 3.782 0 00-2.412-2.779 11.03 11.03 0 01-.512-.145z" fill="#000" fill-opacity=".1"/><path d="M30.058 18.007a5.11 5.11 0 01-3.952-3.953.826.826 0 00-1.618 0 5.11 5.11 0 01-3.953 3.953.826.826 0 000 1.617 5.11 5.11 0 013.953 3.953.826.826 0 001.618 0 5.11 5.11 0 013.952-3.953.827.827 0 000-1.617z" fill="#283593"/><path d="M26.106 14.054a5.11 5.11 0 003.952 3.953.826.826 0 010 1.617 5.11 5.11 0 00-3.952 3.953.826.826 0 01-1.618 0c3.476-4.11 1.448-8.061 0-9.523a.826.826 0 011.618 0z" fill="#000" fill-opacity=".1"/></svg>
